X:86
T:Les Retrouvailles
T:Farandole
R:Farandole
O:France
A:Provence
C:Maurice Mar?chal
C:Pour le trenti?me anniversaire du Festival de
C:Chateau-Gombert, juillet 1994
M:6/8
L:1/8
K:F
"L?ger"c|F2G A2B|c2A B2c|d2f e2d|(c3!breath! A2)c|!tenuto!B2G e2d|!tenuto!c2A !breath!f2f|e2c d2G|cdc BAG|
FEF GAB|c3 ABc|d^cd fed|(c3!breath!A2)c|!tenuto!B2G e2d|!tenuto!c2A f2c| edc BAG|.F2z .F2z||
.e2e ede|(f3 .c2)z|Lecd Lede |Lfed c2z| BAB dcB|A2z e3|.f2c {/d}cBA|(A3 g)z2|
.e2e ede|(f3 .c2)z|Lecd Lede |Lfed c2z| BAB dcB|(A3 c)z2|GAB A2 ((3G/A/G/)|F3-!rit!F z((3c/d/c/)||
!tempo!F2G A2B|c2A B2c|d2f e2d|(c3!breath! A2)c|!tenuto!B2G e2d|!tenuto!c2A !breath!f2f|e2c d2G|cdc BAG|
FEF GAB|c3 ABc|d^cd fed|(c3!breath!A2)c|!tenuto!B2G e2d!rit!|!tenuto!c2A H!breath!f2c| !tempo!edc BAG|.F2z{cde}.fz2||
<end>
<start>
